X: 1
T: Sunday Best
R: reel
M: 4/4
L: 1/8
K: Gmaj
BcS|:d2 g2 bagf|g2 d2 BcdB|c2ac B2gB|ABce dcBc|
d2 g2 bagf|g2 d2 BcdB|cdBc ABGA|Fdfa g2 [1 Bc:|2 ba||
g2 e2 ^cdec|f2 d2 B^cdB|gfed ^cBAG|FGAB A2ef|
g2 e2 ^cdec|f2 d2 B^cdB|gfed ^cage|^dcBA G2ge|
d2 B2 BcdB|c2 A2 ABcA|BcdB ^cdec|defg fdBc|
d2 g2 bagf|g2 d2 BcdB|cdBc ABGA|Fdfa g2 BcS||

